X:1
T:Lir
T:Lir
T:Wim Mertens
C:Wim Mertens
%%score { 1 | 2 }
L:1/8
Q:1/4=110
M:3/4
K:C
V:1 treble nm="Piano" snm="Pno."
V:2 bass 
V:1
!p! z2 GG A_B | z6 | z2 c2 _B2 | AC AF G2 | F2 D _B3 | G4- G2 | z4 A_B/A/ | G2 z2 _G2 | z2 GG A_B | %9
 z6 | z2 c2 _B2 | AC AF G2 | F2 D _B3 | G4- G2 | z4 A_B/A/ | G2 DD _GD |[Q:1/4=90] D2 G2 A2 | %17
[Q:1/4=81] (8:6:8z _BGD_B,DGB |[Q:1/4=110] _Ec E_B EA | FC A,C FA | FD A,D FG | _E_B, G,B, EG | %22
 CG, CA CG | CA, C_G DA, | DG DA D_B | GD _B,D G_B | _Ec E_B EA | FC A,C FA | FD A,D FG | %29
 _E_B, G,B, EG | CG, CA CG | CA, C_G DA, | D[_B,G] D[CA] D_B |: [G_B_b]D [_B,Gg]D [Gg]B | %34
 [_E_B_b]c [EGg]B [EGg]A | [FAa]C [A,Ff]C [Ff]A | [FAa]D A,D FG | [_EGg]_B, [G,E_e]B, [Ee]G | %38
 [CGg]G, [C_E_e]A [CFf]G | [CDd]A, C_G DA, |1,2,3 D[_B,G] D[CA] D_B :|4 %41
 (5:3:5D2 [_B,G]2 D2 [CA]2 D2 ||[Q:1/4=105]!mp! z [G_Bd] [GBd]D [GBd][GBd] | %43
 z [G_B_e] [GBe]_E [GBd][GBd] | z [FAc] [FAc]C [FAc][FAc] | z [F_Bd] [FBd]D [FAc]C | %46
 z [_EG_B] [EGB] z [EGB][EGB] | z [_EGc] [EGc]C [EG_B][EGB] | z [DGA] [DGA]2 [DGA][DGA] | %49
 z [D^FA] [DFA]2 [DFA][DFA] | z .[G_Bd_b] [GBd]D [GBd][GBd] | %51
 .[Gg][G_B_e] [GBe].[_EB_b] [GBd][GBd] | .[Aa][FAc] [FAc]C [FAc][FAc] | %53
 .[Ff][F_Bd] .[FBd_b]D .[FAca]C | .[Gg][_EG_B] [EGB] z [EGB][EGB] | %55
 .[_E_e][EGc] [EGc].[CFf] [EG_B][EGB] | .[Dd][DGA] [DGA]2 [DGA][DGA] | z [D^FA] [DFA]2 [DFA][DFA] | %58
 z .[G_Bd_b] [GBd]D [GBd][GBd] | z [G_B_e] .[GBeg]_E .[GBd_b][GBd] | %60
 .[Aa][FAc] [FAc].[CFf] [FAc][FAc] | z [F_Bd] .[FBd_b]D .[FAca]C | %62
 .[Gg][_EG_B] [EGB].[E_e] [EGB][EGB] | z [_EGc] [EGc].[Ff] [EG_B][EGB] | %64
 .[Dd][DGA] [DGA]2 [DGA][DGA] | z [D^FA] [DFA]2 [DFA][DFA] | z .[G_Bd_b] [GBd]D [GBd][GBd] | %67
 .[Gg][G_B_e] [GBe].[B_b] [GBd][GBd] | .[Aa][FAc] [FAc]C [FAc][FAc] | %69
 .[Ff][F_Bd] .[FBd_b]D .[FAca]C | .[Gg][_EG_B] [EGB] z [EGB][EGB] | %71
 .[_E_e][EGc] [EGc].[Ff] [EG_B][EGB] | .[Dd][DGA] [DGA]2 [DGA][DGA] | %73
[Q:1/4=140] (4:3:4z2 [DGA]2 [DGA]2 z2 |[Q:1/4=130] [DGA]2 [DGA]3[Q:1/4=105]!p! _B |: %75
 [G_B_b]D [Gg]D [Gg]B | [G_B_b]c [_Eg]B [Eg]A | [FAa]C fC [Ff]A | [FAa]D A,D FG | %79
 [_Eg]E _eE [Ee]G | [CGg]C [C_e]A [Cf]G | [Cd]2 C_G D2 |1,2,3,4,5 DG D[CA] D_B :|6 %83
 DG D[CA]3/2D3/2 || _EG A_B _eg | %85
 [_Ba][_e_b] !fermata!_e'!fermata!g' !fermata!a'"^(30% longer duration)"!fermata!_b' | %86
[Q:1/4=110] _D_G _A_B _d_g | _a_b !fermata!_d'!fermata!_g' !fermata!_a'!fermata!_b' | _EG A_B _eg | %89
 a_b !fermata!_e'!fermata!g' !fermata!a'!fermata!_b' | _D_G _A_B _d_g | %91
 _a_b !fermata!_d'!fermata!_g' !fermata!_a'!fermata!_b' | _EG A_B _eg | %93
 a_b !fermata!_e'!fermata!g' !fermata!a'!fermata!_b' | EA Bc ea | %95
 bc' !fermata!e'!fermata!a' !fermata!b'!fermata!c'' | FA Bc fa | %97
 bc' !fermata!f'!fermata!a' !fermata!b'!fermata!c'' | _EG A_B _eg | %99
 a_b !fermata!_e'!fermata!g' !fermata!a'!fermata!_b' | _EG A_B _eg | %101
 a_b !fermata!_e'!fermata!g' !fermata!a'!fermata!_b' | _EG A_B !^![B_b]g | %103
 a_b !fermata!_e'!fermata!g' !fermata!a'!fermata!_b' | _D_G _A_B _d_g | %105
 _a_b !fermata!_d'!fermata!_g' !fermata!_a'!fermata!_b' | _EG A_B !^![B_b]g | %107
 a_b !fermata!_e'!fermata!g' !fermata!a'!fermata!_b' | _D_G _A_B _d_g | %109
 _a_b !fermata!_d'!fermata!_g' !fermata!_a'!fermata!_b' | _EG A_B !^![B_b]g | %111
 a_b !fermata!_e'!fermata!g' !fermata!a'!fermata!_b' | EA Bc !^![cec']a | %113
 bc' !fermata!e'!fermata!a' !fermata!b'!fermata!c'' | !^![FAa]2 Bc fa | %115
 bc' !fermata!f'!fermata!a' !fermata!b'!fermata!c'' | _E!^![Gg] A_B _eg | %117
 a_b !fermata!_e'!fermata!g' !fermata!a'!fermata!_b' | _EG A_B _eg | %119
 a_b !fermata!_e'!fermata!g' !fermata!a'!fermata!_b' | EA Bc !^![Aea]2 | %121
 bc' !fermata!e'!fermata!a' !fermata!b'!fermata!c'' | FA Bc fa | %123
 bc' !fermata!f'!fermata!a' !fermata!b'!fermata!c'' | !^![_EGg]2 A_B _eg | %125
 a_b !fermata!_e'!fermata!g' !fermata!a'!fermata!_b' | _EG A_B _eg | %127
 a_b !fermata!_e'!fermata!g' !fermata!a'!fermata!_b' | _D_G _A_B !^![B_d_b]_g | %129
 _a_b !fermata!_d'!fermata!_g' !fermata!_a'!fermata!_b' | _EG A_B _eg | %131
 a_b !fermata!_e'!fermata!g' !fermata!a'!fermata!_b' | _D_G _A_B !^![B_d_b]_g | %133
 _a_b !fermata!_d'!fermata!_g' !fermata!_a'!fermata!_b' | _EG A_B _eg | %135
 a_b !fermata!_e'!fermata!g' !fermata!a'!fermata!_b' | _D_G _A_B !^![B_d_b]_g | %137
 _a_b !fermata!_d'!fermata!_g' !fermata!_a'!fermata!_b' | EA Bc ea | %139
 bc' !^!!fermata![cc'e']!fermata!a' !fermata!b'!fermata!c'' | !^![FAa]2 Bc fa | %141
 bc' !fermata!f'!fermata!a' !fermata!b'!fermata!c'' | !^![_EGg]2 A_B _eg | %143
 a_b !fermata!_e'!fermata!g' !fermata!a'!fermata!_b' | _EG A_B _eg | %145
 a_b !fermata!_e'!fermata!g' !fermata!a'!fermata!_b' | _D_G _A_B !^![B_d_b]_g | %147
 _a_b !fermata!_d'!fermata!_g' !fermata!_a'!fermata!_b' | _EG A_B _eg | %149
 a_b !fermata!_e'!fermata!g' !fermata!a'!fermata!_b' | _D_G _A_B !^![B_d_b]_g | %151
 _a_b !fermata!_d'!fermata!_g' !fermata!_a'!fermata!_b' | _EG A_B _eg | %153
 a_b !fermata!_e'!fermata!g' !fermata!a'!fermata!_b' | _D_G _A_B !^![B_d_b]_g | %155
 _a_b !fermata!_d'!fermata!_g' !fermata!_a'!fermata!_b' | _EG A_B _eg | %157
 a_b !fermata!_e'!fermata!g' !fermata!a'!fermata!_b' | EA Bc !^![cec']a | %159
 bc' !fermata!e'!fermata!a' !fermata!b'!fermata!c'' | !^![FAa]A Bc fa | %161
 bc' !fermata!f'!fermata!a' !fermata!b'!fermata!c'' | !^![_EGg]G A_B _eg | %163
 a_b !fermata!_e'!fermata!g' !fermata!a'!fermata!_b' | _EG A_B _eg | %165
 a_b !fermata!_e'!fermata!g' !fermata!a'!fermata!_b' | EA Bc !^![Aea]2 | %167
 bc' !fermata!e'!fermata!a' !fermata!b'!fermata!c'' | FA Bc fa | %169
 bc' !fermata!f'!fermata!a' !fermata!b'!fermata!c'' | !^![_EGg]2 A_B _eg | %171
 a_b !fermata!_e'!fermata!g' !fermata!a'!fermata!_b' | _EG A_B _eg | %173
 a_b !fermata!_e'!fermata!g' !fermata!a'!fermata!_b' | _D_G _A_B !^![B_d_b]_g | %175
 _a_b !fermata!_d'!fermata!_g' !fermata!_a'!fermata!_b' | _EG A_B _eg | %177
 a_b !fermata!_e'!fermata!g' !fermata!a'!fermata!_b' | _D_G _A_B !^![B_d_b]_g | %179
 _a_b !fermata!_d'!fermata!_g' !fermata!_a'!fermata!_b' | _EG A_B _eg | %181
 a_b !fermata!_e'!fermata!g' !fermata!a'!fermata!_b' | _D_G _A_B !^![B_d_b]_g | %183
 _a_b !fermata!_d'!fermata!_g' !fermata!_a'!fermata!_b' | EA Bc !^![cec']a | %185
 bc' !fermata!e'!fermata!a' !fermata!b'!fermata!c'' | !^![FAa]A Bc fa | %187
 bc' !fermata!f'!fermata!a' !fermata!b'!fermata!c'' | !^![_EGg]G A_B _eg | %189
 a_b !fermata!_e'!fermata!g' !fermata!a'!fermata!_b' | _EG A_B _eg | %191
 a_b !fermata!_e'!fermata!g' !fermata!a'!fermata!_b' | EA Bc !^![Aea]a | %193
 bc' !fermata!e'!fermata!a' !fermata!b'!fermata!c'' | FA Bc fa | %195
 bc' !fermata!f'!fermata!a' !fermata!b'!fermata!c'' | !^![_EGg]2 A_B _eg | %197
 a_b !fermata!_e'!fermata!g' !fermata!a'!fermata!_b' | _EG A_B _eg | %199
 a_b !fermata!_e'!fermata!g' !fermata!a'!fermata!_b' | _EG A_B !^![B_e_b]g | %201
 a_b !fermata!_e'!fermata!g' !fermata!a'!fermata!_b' | _D_G _A_B _d_g | %203
 _a_b !fermata!_d'!fermata!_g' !fermata!_a'!fermata!_b' | _EG A_B !^![B_e_b]g | %205
 a_b !fermata!_e'!fermata!g' !fermata!a'!fermata!_b' | _D_G _A_B _d_g | %207
 _a_b !fermata!_d'!fermata!_g' !fermata!_a'!fermata!_b' | _EG A_B _eg | %209
 a_b !^!!fermata![_B_eb]!fermata!g' !fermata!a'!fermata!_b' | EA Bc !^![cec']a | %211
 bc' !fermata!e'!fermata!a' !fermata!b'!fermata!c'' | !^![FAa]A Bc fa | %213
 bc' !fermata!f'!fermata!a' !fermata!b'!fermata!c'' | !^![_EGg]G A_B _eg | %215
 a_b !fermata!_e'!fermata!g' !fermata!a'!fermata!_b' | _EG A_B _eg | %217
 a_b !fermata!_e'!fermata!g' !fermata!a'!fermata!_b' | EA Bc !^![Aea]2 | %219
 bc' !fermata!e'!fermata!a' !fermata!b'!fermata!c'' | FA Bc fa | %221
 bc' !fermata!f'!fermata!a' !fermata!b'!fermata!c'' | !^![_EGg]G A_B _eg | %223
 a_b !fermata!_e'!fermata!g' !fermata!a'!fermata!_b' | _EG A_B _eg | %225
 a_b !fermata!_e'!fermata!g' !fermata!a'!fermata!_b' |:[Q:1/4=110] Gd gG dg | Gd gG dg | %228
 Gc gG cg |1,2,3,4 Gc !fermata!g!fermata!F !fermata!c!fermata!f ::[Q:1/4=110] Ad fA df | %231
 [FA]d fA df | [G_B][_Ed] gG dg |[Q:1/4=105] Gd gG dg ::[Q:1/4=110] Ad fA df | [FA]d fA df | %236
 [G_B][_Ed] [Eg]G dg |[Q:1/4=105] Gd gG dg ::[Q:1/4=110] Ad fA [Gd]f | [FA]d fA df | %240
 [G_B][_Ed] gG [Ed]g |[Q:1/4=105] Gd gG dg ::[Q:1/4=110] A[Dd] fA [Dd]f | [FA]d fA df | %244
 [G_B]d gG [_Ed]g |[Q:1/4=105] Gd gG dg :|[Q:1/4=110] G[_Ed] gG [Ed]g | %247
 !^![Gd']d !^![_Egc']G !^![d_b]g | !^![Ga]c gG cg |[Q:1/4=105] Gc [Dg]F cf |[Q:1/4=110] Gd gG dg | %251
 !^![Ggd']d !^![gc']G !^![d_b]g | G/!^!a/c gG cg |[Q:1/4=105] Gc gF cf |[Q:1/4=110] Gd gG dg | %255
 G/!^!d'/d g/!^!c'/G d/!^!_b/g | Gc/!^!a/ gG cg |[Q:1/4=105] Gc gF cf |[Q:1/4=110] Gd gG dg | %259
 !^![Gd']d !^![gc']G !^![d_b]g | !^![Ga]c gG cg | Gc g[Q:1/4=100]F[Q:1/4=95] c[Q:1/4=90]f |: %262
[Q:1/4=110] [FA]d fA [Dd][Gf] | Ad fA df | [G_B]d gG dg |[Q:1/4=105] Gd gG dg :: %266
[Q:1/4=110] [FA]d fA df | Ad fA df | [G_B][_Ed] gG dg |[Q:1/4=105] Gd gG dg :: %270
[Q:1/4=110] Ad fA df | Ad fA df | [G_B]d gG dg |[Q:1/4=105] Gd gG dg ::[Q:1/4=110] Ad fA df | %275
 Ad fA df | [G_B][_Ed] gG dg |1[Q:1/4=105] Gd gG dg :|2[Q:1/4=100] Gd gG dg |: %279
[Q:1/4=110] Gd gG dg | !^![Gd']d !^![_Egc']G !^![d_b]g | !^![Ga]c gG cg |[Q:1/4=105] Gc [Dg]F cf :: %283
[Q:1/4=110] Gd gG dg | !^![Gd']d !^![_Egc']G !^![d_b]g | G!^![ca] gG cg |1 Gc [Dg]F cf :|2 %287
[Q:1/4=105] Gc !fermata![Dg]!fermata!F !fermata!c"^(20% longer)"!fermata!f ||[Q:1/4=110] Ad fA df | %289
 [GA]d fA df | [G_B]d gG dg |[Q:1/4=105] Gd gG dg |:[Q:1/4=110] Ad fA df | Ad fA df | %294
 [G_B]d gG dg | Gd gG dg :: Ad fA df | Ad fA df | [G_B]d gG dg | Gd gG dg :| A[Dd] fA [Dd]f | %301
 [FA]d fA df | [G_B][_Ed] gG [Ed]g | Gd gG dg | Gd gG dg | !^![Gd']d !^![_Egc']G !^![d_b]g | %306
 !^![Ga]c gG cg |[Q:1/4=105] Gc gF cf |[Q:1/4=110] Gd gG dg | !^![Gd']d !^![_Egc']G !^![d_b]g | %310
 !^![Ga]c gG cg |[Q:1/4=105] Gc [Dg]F cf |[Q:1/4=110] Gd gG dg | !^![Gd']d !^![_Egc']G !^![d_b]g | %314
 G!^![ca] gG cg |[Q:1/4=105] Gc [Dg]F cf |[Q:1/4=110] Gd gG dg | !^![Gd']d !^![_Egc']G !^![d_b]g | %318
 !^![Ga]c gG cg |[Q:1/4=105] Gc [Dg]F cf |[Q:1/4=110] Ad fA [Dd][Gf] | [FA]d fA df | %322
 [G_B]d gG [_Ed]g |[Q:1/4=105] Gd gG dg |[Q:1/4=110] [FA]d f[DA] [Gd]f | Ad fA df | %326
 [G_B]d gG [_Ed]g | Gd gG dg | Ad fA [Dd]f | [FA]d fA df | [G_B][_Ed] gG [Ed]g | Gd gG dg | %332
 [FA]d fA [Dd]f | Ad fA df | [G_B]d gG [_Ed][Q:1/4=100]g | Gd gG GA | _B2 DG D2 | z2 c_E _B2 | %338
 AC AF G2 | F2 D _B3 | z G2 z z2 | z4 z2 | A_B/A/ G z D2 | _G2 D2 =G2 | %344
 A2 z[Q:1/4=105] _B [GB_b]D | [Gg]D [Gg]_B [_EB_b]c | [_EGg]_B [Eg]A [FAa]C | [Ff]C [Ff]A [FAa]D | %348
 z D FG [Gg]_E | [_E_e] z [Ee]G [Gg] z | [C_E_e]A [CFf]G [CDd]2 | C_G D2 D=G | %352
 (5:3:5D2 [CA]2 D2 _B2 [GB_b]2 | D[Gg] D[Gg] _B[_EB_b] | c[_EGg] _B[EGg] A[FAa] | %355
 C[Ff] C[Ff] A[FAa] | DA, DF G[_EGg] | z [_E_e] _B,[Ee] G[CGg] | G,[C_E_e] A[CFf] G[Dd] | %359
 A,C _GD A,D | [_B,G]D [CAc]D _B[GB_b] | D[Gg] D[Gg] _B[_EB_b] | c[_EGg] _B[EGg] A[FAa] | %363
 c[Ff] C[Ff] A[FAa] | DA, DF G[_EGg] | _E[E_e] _B,[Ee] G[CGg] | G,[C_E_e] A[CFf] G[CDd] | %367
 A,C _GD A,D | (5:3:5[_B,G]2 D2 [CAc]2 D2 _B2 | [G_B_b]D [Gg]D [Gg]B | [_B_b]c [Gg]_B, [Gg]A | %371
 [FAa]C [Ff]A [Ff]A | [FAa]D A,D FG | [_EGg]_B, [E_e]B, [Ee]G | [Gg]_E [E_e]A [Ff]G | %375
 [Dd]A, C_G D2 | (5:3:5D2 [_B,G]2 D2 [CA]2 D2 |[Q:1/4=100]!f! z [G_Bd] [GBd]D [GBd][GBd] | %378
 z [G_B_e] [GBe]_E [GBd][GBd] | z [FAc] [FAc]C [FAc][FAc] | z [F_Bd] [FBd][DF] [FAc]C | %381
 z [_EG_B] [EGB]2 [EGB][EGB] | z [_EGc] [EGc][CE] [EG_B][EGB] | z [DGA] [DGA] z [DGA][DGA] | %384
 z [D_GA] [DGA]2 [DGA][DGA] | z !^![G_Bd_b] [GBd]D [GBd][GBd] | %386
 !^![_EGg][G_B_e] [GBe]!^![EB_b] [GBd][GBd] | !^![Aa][FAc] [FAc]C [FAc][FAc] | %388
 !^![Ff][F_Bd] !^![FBd_b][DF] !^![FAca]C | !^![Gg][_EG_B] [EGB]E [EGB][EGB] | %390
 !^![_E_e][EGc] [EGc]!^![Ff] [EG_B][EGB] | !^![Dd][DGA] [DGA]2 [DGA][DGA] | %392
 z [D_GA] [DGA] z [DGA][DGA] | z !^![G_Bd_b] [GBd]D [GBd][GBd] | %394
 !^![_EGg][G_B_e] [GBe]!^![EB_b] [GBd][GBd] | !^![Aa][FAc] [FAc]C [FAc][FAc] | %396
 !^![Ff][F_Bd] !^![FBd_b]D !^![FAca]C | !^![_EGg][EG_B] [EGB]2 [EGB][EGB] | %398
 !^![_E_e][EGc] [EGc]!^![Ff] [EG_B][EGB] | !^![Dd][DGA] [DGA] z [DGA][DGA] | %400
 z [D_GA] [DGA]2 [DGA][DGA] | z !^![G_Bd_b] [GBd]D [GBd][GBd] | %402
 !^![Gg][G_B_e] [GBe]!^![_EB_b] [GBd][GBd] | !^![Aa][FAc] [FAc]C [FAc][FAc] | %404
 !^![Ff][F_Bd] !^![FBd_b]D !^![FAca]C | !^![Gg][_EG_B] [EGB]2 [EGB][EGB] | %406
 !^![_E_e][EGc] [EGc]!^![Ef] [EG_B][EGB] | !^![Dd][DGA] [DGA]2 [DGA][DGA] | %408
 z [D_GA] [DGA]2 [DGA][DGA] | z !^![G_Bd_b] [GBd]D [GBd][GBd] | %410
 !^![_EGg][G_B_e] [GBe]!^![EB_b] [GBd][GBd] | !^![Aa][FAc] [FAc]C [FAc][FAc] | %412
 !^![Ff][F_Bd] !^![FBd_b]D !^![FAca]C | !^![Gg][_EG_B] [EGB]2 [EGB][EGB] | %414
 !^![_E_e][Gc] [EGc]!^![Ff] [EG_B][EGB] | !^![Dd][DGA] [DGA] z [DGA][DGA] | %416
!mp! z [D_GA] [DGA] z [DGA][DGA] |[Q:1/4=85] (7:6:6z [_B_b]G [DGg]2 [DGg]B | %418
[Q:1/4=95] [_E_B_b]c [EGg]B [EGg]A | [FAa]C [Ff]C [Ff]2 | [FAa] D2 D FG | [_EGg]2 [E_e]2 [Ee]2 | %422
 [CGg]2 [C_E_e]A [CFf]G | [CDd]2 C_G D2 | DG D[CAc] D_B |[Q:1/4=100] [G_B_b]D [Gg]D [Gg]B | %426
 [_E_B_b]c [EGg]B [EGg]A | [FAa]C [Ff]C [Ff]A | [FAa] D2 D FG | [_EGg]2 [E_e]2 [Ee]G | %430
 [CGg]2 [C_E_e]A [CFf]G | [CDd]2 C_G D2 | DG D[CA] D_B | [G_B_b]D [Gg]D [Gg]B | %434
 [_E_B_b]c [EGg]2 [EGg]A | [FAa]C [Ff]C [Ff]A | [Aa] D2 D FG | [_EGg]2 [E_e]2 [Ee]G | %438
 [Gg]2 [C_E_e]A [CFf]G | [Dd]2 C_G D2 | DG D[CAc] D_B | [G_B_b]D [Gg]D [Gg]B | %442
 [_E_B_b]c [EGg]B [EGg]A | [FAa]C [Ff]C [Ff]2 | [Aa] D2 D FG | [_EGg]2 [E_e]2 [Ee]G | %446
 [CGg]2 [C_E_e]A [CFf]G | [CDd]2 C_G D2 |[Q:1/4=85] DG (3D2 [CAc]2 D2 | %449
[Q:1/4=95]!f! z !^![G_Bd_b] [GBd]D [GBd][GBd] | %450
[Q:1/4=105] z !^![G_B_eg] [GBe]!^![_EBe_b] [GBd][GBd] | !^![Aa][FAc] [FAc]C [FAc][FAc]/!^![Ff]/ | %452
 z/ z/ [F_Bd]/[B_b]/ !^![Fd]D/!^![Aa]/ [Fc]C/!^![Gg]/ | z [_EG_B] [EGB]2 [EGB][EGB] | %454
 !^![_E_e][EGc] [EGc]!^![Ff] [EG_B][EGB] | !^![Dd][DGA] [DGA]2 [DGA][DGA] | %456
 z [D_GA] [DGA]2 [DGA][DGA] | z !^![G_Bd_b] [GBd]D [GBd][GBd] | %458
 !^![Gg][G_B_e] [GBe]!^![_EB_b] [GBd][GBd] | !^![Aa][FAc] [FAc]C [FAc][FAc]/!^![Ff]/ | %460
 z/ z/ [F_Bd]/[B_b]/ !^![Fd]D/!^![Aa]/ [Fc]C/!^![Gg]/ | z [_EG_B] [EGB]2 [EGB][EGB] | %462
 !^![_E_e][EGc] [EGc]!^![Ff] [EG_B][EGB] | !^![Dd][DGA] [DGA]2 [DGA][DGA] | %464
 z [D_GA] [DGA]2 [DGA][DGA] |: z !^![G_Bd_b] [GBd]D [GBd][GBd] | %466
 !^![Gg][G_B_e] [GBe]!^![_EB_b] [GBd][GBd] | !^![Aa][FAc] [FAc]C [FAc][FAc] | %468
 !^![Ff][F_Bd] !^![FBd_b]D !^![FAca]C | !^![Gg][_EG_B] [EGB]2 [EGB][EGB] | %470
 !^![_E_e][EGc] [EGc]!^![Ff] [EG_B][EGB] | !^![Dd][DGA] [DGA]2 [DGA][DGA] | %472
 z [D_GA] [DGA]2 [DGA][DGA] :| z !^![G_Bd_b] [GBd]D [GBd][GBd] | %474
 !^![Gg][G_B_e] [GBe]!^![_EB_b] [GBd][GBd] | !^![Aa][FAc] [FAc]C [FAc][FAc]/!^![Ff]/ | %476
 z/ z/ [F_Bd]/[B_b]/ !^![Fd]D/!^![Aa]/ [Fc]C/!^![Gg]/ | z [_EG_B] [EGB]2 [EGB][EGB] | %478
 !^![_E_e][EGc] [EGc]!^![Ff] [EG_B][EGB] | !^![Dd][DGA] [DGA]2 [DGA][DGA] | %480
 z [D_GA] [DGA]2 [DGA][DGA-] | A6- | A6- | A6- | A6 |] %485
V:2
!ped! z6 | G,_B, DG DB,!ped-up! |!ped! _E, _B,2 _E2 B, | F,6 | D, A,4- A,!ped-up! | %5
!ped! _E,_B, _EB, E,B, | C,G, CC z G,!ped-up! |!ped! D,A, D z2 A, | D4- D2 | G,_B, DG DB,!ped-up! | %10
!ped! _E, _B,2 _E2 B, | F,6 | D, A,4- A,!ped-up! |!ped! _E,_B, _EB, E,B, | C,G, CC z G,!ped-up! | %15
!ped! D, A,4- A, | z6 | (8:6:8z!ped-up!!ped! G,,D,G,D,G,,D,_E, | _B,,_E,, B,,_E, B,,F,,!ped-up! | %19
!ped! C,F, C,F,, C,D, | A,,D,, A,,D, A,,_E,,!ped-up! |!ped! _B,,_E, B,,_E,, B,,C, | %22
 G,,C,, G,,C, G,,D,,!ped-up! |!ped! A,,D, A,,D,, A,,D, | A,,D,, A,,D, A,,G,,!ped-up! | %25
!ped! D,G, D,G,, D,_E, | _B,,_E,, B,,_E, B,,F,,!ped-up! |!ped! C,F, C,F,, C,D, | %28
 A,,D,, A,,D, A,,_E,,!ped-up! |!ped! _B,,_E, B,,_E,, B,,C, | G,,C,, G,,C, G,,D,,!ped-up! | %31
!ped! A,,D, A,,D,, A,,D, | A,,D,, A,,D, A,,G,,!ped-up! |:!ped! D,G, D,G,, D,_E, | %34
 _B,,_E,, B,,_E, B,,F,,!ped-up! |!ped! C,F, C,F,, C,D, | A,,D,, A,,D, A,,_E,,!ped-up! | %37
!ped! _B,,_E, B,,_E,, B,,C, | G,,C,, G,,C, G,,D,,!ped-up! |!ped! A,,D, A,,D,, A,,D, |1,2,3 %40
 A,,D,, A,,D, A,,G,,!ped-up! :|4!ped! (5:3:5A,,2 D,,2 A,,2 D,2 A,,2!ped-up! ||!ped! G,,3 _B,3 | %43
 _E,,3 _B,3!ped-up! |!ped! F,,3 A,3 | D,,3 _B,2 A,!ped-up! |!ped! _E,,3 [G,_B,]3 | %47
 C,,3 G,3!ped-up! |!ped! D,,3 D,3 | D,3 D,3!ped-up! |!ped! G,,3 _B,3 | _E,,3 _B,3!ped-up! | %52
!ped! F,,3 A,3 | D,,3 _B,2 A,!ped-up! |!ped! [_E,,_E,]3 [G,_B,]3 | C,,3 z3!ped-up! | %56
!ped! D,,3 D,3 | D,3 D,3!ped-up! |!ped! G,,3 _B,3 | _E,,3 _B,3!ped-up! |!ped! F,,3 A,3 | %61
 D,,3 _B,2 A,!ped-up! |!ped! [_E,,_E,]3 [G,_B,]3 | C,,3 G,3!ped-up! |!ped! D,,3 D,3 | %65
 D,3 D,3!ped-up! |!ped! G,,3 _B,3 | _E,,3 _B,3!ped-up! |!ped! F,,3 A,3 | D,,3 _B,2 A,!ped-up! | %70
!ped! [_E,,_E,]3 [G,_B,]3 | C,,3 G,3!ped-up! |!ped! D,,3 D,3 | (4:3:4D,2 z2 z2 D,2 | %74
 z2 z2 z G,,!ped-up! |:!ped! D,G, [D,_B,]G,, D,_E,!ped-up! |!ped! _B,,_E,, B,,_E, B,,F,,!ped-up! | %77
!ped! C,F, [C,A,]F,, C,D,!ped-up! |!ped! A,,D,, A,,D, A,,_E,,!ped-up! | %79
!ped! _B,,[_E,_B,] [B,,G,][_E,,B,] B,,C,!ped-up! | G,,[C,,G,] G,,C, G,,D,,!ped-up! | %81
!ped! A,,[D,A,] A,,D,, A,,[D,A,] |1,2,3,4,5 A,,D,, A,,D, A,,G,,!ped-up! :|6 %83
!ped! A,,D,, A,,D,3/2A,,3/2!ped-up! ||!ped! _E,,_E, E,_B, _EE | z2 z4!ped-up! | %86
!ped! _G,,_G, G,_D _G_d | _g6!ped-up! |!ped! _E,,_E, E,_B, _EE | _B_e z4!ped-up! | %90
!ped! _G,,_G, G,_D _GG | _d_g z4!ped-up! |!ped! _E,,_E, E,_B, _EE | _B_e z4!ped-up! | %94
!ped! F,,F, F,C FF | ef z4!ped-up! |!ped! D,,D, D,A, DD | Ad z4!ped-up! |!ped! _E,,_E, E,_B, _EE | %99
 _B_e z4!ped-up! |!ped! C,,G, CC Gc | z4 z2!ped-up! |!ped! _E,,_E, E,_B, _EE | _B_e z4!ped-up! | %104
!ped! _G,,_G, G,_D _GG | _d_g z4!ped-up! |!ped! _E,,_E, E,_B, _EE | _B_e z4!ped-up! | %108
!ped! _G,,_G, G,_D _GG | _d_g z4!ped-up! |!ped! _E,,_E, E,_B, _EE | _B_e z4!ped-up! | %112
!ped! F,,F, F,C FF | cf z4!ped-up! |!ped! D,,D, D,A, DD | Ad z4!ped-up! |!ped! _E,,_E, E,_B, _EE | %117
 _B_e z4!ped-up! |!ped! C,,C, C,G, CC | Gc z2 z2!ped-up! |!ped! F,,F, F,C FF | cf z4!ped-up! | %122
!ped! D,,D, D,A, DD | Ad z4!ped-up! |!ped! _E,,_E, E,_B, _EE | _B_e z4!ped-up! | %126
!ped! C,,C, C,G, CC | Gc z2 z2!ped-up! |!ped! _G,,_G, G,_D _GG | _d_g z4!ped-up! | %130
!ped! _E,,_E, E,_B, _EE | _B_e z4!ped-up! |!ped! _G,,_G, G,_D _GG | _d_g z4!ped-up! | %134
!ped! _E,,_E, E,_B, _EE | _B_e z4!ped-up! |!ped! _G,,_G, G,_D _GG | _d_g z4!ped-up! | %138
!ped! F,,F, F,C F2 | F2 c4!ped-up! |!ped! D,,D, D,A, DD | Ad z4!ped-up! |!ped! _E,,_E, E,_B, _EE | %143
 _B_e z4!ped-up! |!ped! C,,C, C,G, CC | Gc z2 z2!ped-up! |!ped! _G,,_G, G,_D _GG | %147
 _d_g z4!ped-up! |!ped! _E,,_E, E,_B, _EE | _B_e z4!ped-up! |!ped! _G,,_G, G,_D _GG | %151
 _d_g z4!ped-up! |!ped! _E,,_E, E,_B, _EE | _B_e z4!ped-up! |!ped! _G,,_G, G,_D _GG | %155
 _d_g z4!ped-up! |!ped! _E,,_E, E,_B, _EE | _B_e z4!ped-up! |!ped! F,,F, F,C F2 | %159
 F z f z z2!ped-up! |!ped! D,,D, D,A, DD | Ad z4!ped-up! |!ped! _E,,_E, E,_B, _EE | %163
 _B_e z4!ped-up! |!ped! C,,C, C,G, CC | Gc z2 z2!ped-up! |!ped! F,,F, F,C FF | cf z4!ped-up! | %168
!ped! D,,D, D,A, DD | Ad z4!ped-up! |!ped! _E,,_E, E,_B, _EE | _B_e z4!ped-up! | %172
!ped! C,,C, C,G, CC | Gc z2 z2!ped-up! |!ped! _G,,_G, G,_D _GG | _d_g z4!ped-up! | %176
!ped! _E,,_E, E,_B, _EE | _B_e z4!ped-up! |!ped! _G,,_G, G,_D _GG | _d_g z4!ped-up! | %180
!ped! _E,,_E, E,_B, _EE | _B_e z4!ped-up! |!ped! _G,,_G, G,_D _GG | _d_g z4!ped-up! | %184
!ped! F,,F, F,C FF | cf z4!ped-up! |!ped! D,,D, D,A, DD | Ad z4!ped-up! |!ped! _E,,_E, E,_B, _EE | %189
 _B_e z4!ped-up! |!ped! C,,C, C,G, CC | Gc z2 z2!ped-up! |!ped! F,,F, F,C FF | cf z4!ped-up! | %194
!ped! D,,D, D,A, DD | Ad z4!ped-up! |!ped! _E,,_E, E,_B, _EE | _B_e z4!ped-up! | %198
!ped! C,,C, C,G, CC | Gc z2 z2!ped-up! |!ped! _E,,_E, E,_B, _EE | _B_e z4!ped-up! | %202
!ped! _G,,_G, G,_D _G_d | _g6!ped-up! |!ped! _E,,_E, E,_B, _EE | _B_e z4!ped-up! | %206
!ped! _G,,_G, G,_D _GG | _d_g z4!ped-up! |!ped! _E,,_E, E,_B, _EE | _B_e z4!ped-up! | %210
!ped! F,,F, F,C FF | cf z4!ped-up! |!ped! D,,D, D,A, DD | Ad z4!ped-up! |!ped! _E,,_E, E,_B, _EE | %215
 _B_e z4!ped-up! |!ped! C,,C, C,G, CC | Gc z4!ped-up! |!ped! F,,F, F,C FF | cf z4!ped-up! | %220
!ped! D,,D, D,A, DD | Ad z4!ped-up! |!ped! _E,,_E, E,_B, _EE | _B_e z4!ped-up! | %224
!ped! C,,C, C,G, CC | Gc z4!ped-up! |:!ped! _E,,_E, E,_B, _E2 | z6!ped-up! | %228
!ped! D,,D, D,A, D2 |1,2,3,4 z6!ped-up! ::!ped! G,,G, G,D G2 | z6!ped-up! | %232
!ped! _E,,_E, E,_B, _E2 | z6!ped-up! ::!ped! D,,D, D,A, D2 | z6!ped-up! |!ped! _E,,_E, E,_B, _E2 | %237
 z6!ped-up! ::!ped! G,,G, G,D z2 | z6!ped-up! |!ped! _E,,_E, E,_B, z2 | z6!ped-up! :: %242
!ped! D,,D, D,A, z2 | z6!ped-up! |!ped! _E,,_E, E,_B, z2 | z6!ped-up! :|!ped! _E,, _E,3 E,2 | %247
 _B,4 B,2!ped-up! |!ped! D,,2 D,2 D,2 | A,4 A,2!ped-up! |!ped! [_E,,_B,]2 _E,2 E,2 | %251
 _B,2 _E2 B,2!ped-up! |!ped! D,,2 D,2 D,2 | A,2 D2 A,2!ped-up! |!ped! _E,,2 _E,2 E,2 | %255
 _B,2 _E2 B,2!ped-up! |!ped! D,,2 D,2 D,2 | A,2 D2 A,2!ped-up! |!ped! _E,,2 _E,2 E,2 | %259
 _B,2 _E2 B,2!ped-up! |!ped! D,,2 D,2 D,2 | A,2 D2 A,2!ped-up! |:!ped! G,, G,2 G, z2 | z6!ped-up! | %264
!ped! _E,, _E,2 _B, _E2 | z6!ped-up! ::!ped! D,, D,2 A, D2 | z6!ped-up! |!ped! _E,, _E,2 _B, _E2 | %269
 z6!ped-up! ::!ped! G,,G, G,D G z | F6!ped-up! |!ped! _E,,_E, E,_B, _E2 | z6!ped-up! :: %274
!ped! D,,D, D,A, D2 | F6!ped-up! |!ped! _E,,_E, E,_B, _E2 |1 z6!ped-up! :|2!ped! z6!ped-up! |: %279
!ped! _E,,2 _E,2 E,2 | _B,4 B,2!ped-up! |!ped! D,,2 D,2 D,2 | A,4 A,2!ped-up! :: %283
!ped! _E,,2 _E,2 E,2 | _B,4 B,2!ped-up! |!ped! D,,2 D,2 D,2 |1 A,4 A,2!ped-up! :|2 %287
!ped! A,4 !fermata!A,2!ped-up! ||!ped! G,,2 G,F G,D | z6!ped-up! |!ped! _E,,_E, E,_B, _E2 | %291
 z6!ped-up! |:!ped! D,,D, D,A, D2 | F4 z2!ped-up! |!ped! _E,,_E, E,_B, _E z | z6!ped-up! :: %296
!ped! G,,G, G,D G z | F6!ped-up! |!ped! _E,,_E, E,_B, _E z | z6!ped-up! :|!ped! D,,D, D,A, D z | %301
 z6!ped-up! |!ped! _E,,_E, E, _B,3!ped-up! | z6!ped-up! |!ped! _E,,2 _E,2 E,2 | _B,4 B,2!ped-up! | %306
!ped! D,,2 D,2 D,2 | A,2 D2 A,2!ped-up! |!ped! _E,,2 _E,2 E,2 | _B,4 B,2!ped-up! | %310
!ped! D,,D, D,2 D,2 | A,4 A,2!ped-up! |!ped! _E,,_E, E,2 E,2 | _B,4 B,2!ped-up! | %314
!ped! D,,D, D,2 D,2 | A,4 A,2!ped-up! |!ped! _E,,_E, E,2 E,2 | _B,4 B,2!ped-up! | %318
!ped! D,,D, D,2 D,2 | A,4 A,2!ped-up! |!ped! G,,2 G, G,3 | z6!ped-up! |!ped! _E,, _E,2 _B,3 | %323
 z6!ped-up! |!ped! G,,G, G,4 | z6!ped-up! |!ped! _E,,_E, E, _B,3 | z6!ped-up! |!ped! D,,D, D, A,3 | %329
 z6!ped-up! |!ped! _E,,_E, E, _B,3 | z6!ped-up! |!ped! D,,D, D, A,3 | z6!ped-up! | %334
!ped! _E,,_E, E, _B,3 | z6!ped-up! |!ped! G, _B,4 B, | _E, _B,4 B,!ped-up! |!ped! F,6 | %339
 D,A, z4!ped-up! |!ped! z _E,2 _B, _EB, | _E,_B, C,G, CC!ped-up! |!ped! z2 D,A, z2 | z6 | %344
 z2 z!ped-up!!ped! G,,3 | _B,3 _E,3 | z3!ped-up!!ped! F,3 | A,3 D,3 | A,3!ped-up!!ped! _E,,2 _B, | %349
 G, _B,2 C,2 G, | z3 D,2!ped-up!!ped! A, | z3 A, z _B, | (5:3:5z2 z2 z2!ped-up!!ped! G,,2 D,2 | %353
 G,[D,_B,] G,,D, _E,_B,, | _E,,_B,, _E,B,, F,,C,!ped-up! |!ped! F,[C,A,] F,,C, D,A,, | %356
 D,,A,, D,A,, _E,,_B,,!ped-up! |!ped! [_E,_B,][_B,,G,] _E,,B,, C,G,, | %358
 C,,G,, C,G,, D,,A,,!ped-up! |!ped! D,A,, D,,A,, D,A,, | D,,A,, D,A,, G,,D,!ped-up! | %361
!ped! G,[D,_B,] G,,D, _E,_B,, | _E,,_B,, _E,B,, F,,C,!ped-up! |!ped! F,[C,A,] F,,C, D,A,, | %364
 D,,A,, D,A,, _E,,_B,,!ped-up! |!ped! [_E,_B,][_B,,G,] _E,,B,, C,G,, | %366
 C,,G,, C,G,, D,,A,,!ped-up! |!ped! D,A,, D,,A,, D,A,, | %368
 (5:3:5D,,2 A,,2 D,2 A,,2!ped-up!!ped! G,,2 | D,G, [D,_B,]G,, D,_E, | %370
 _B,,_E,, B,,_E, B,,F,,!ped-up! |!ped! C,F, [C,A,]F,, C,D, | A,,D,, A,,D, A,,_E,,!ped-up! | %373
!ped! _B,,_E, [B,,G,]_E,, B,,C, | G,,[C,,G,] G,,C, G,,D,,!ped-up! |!ped! A,,D, A,,D,, A,,[D,A,] | %376
 (5:3:5A,,2 D,,2 A,,2 D,2 A,,2!ped-up! |!ped! G,,3 _B,3 | _E,,3 _B,3!ped-up! |!ped! F,,3 A,3 | %380
 D,,3 _B,3!ped-up! |!ped! _E,,3 [G,_B,]3 | C,,3 G,3!ped-up! |!ped! D,,3 D,3 | D,3 D,3!ped-up! | %385
!ped! G,, _B,2 B,3 | _E,,3 _B,3!ped-up! |!ped! [F,,A,]3 A,3 | [D,,F,]2 _B,B, A,A,!ped-up! | %389
!ped! _E,,3 _B,3 | [C,,_E,]3 [F,G,]3!ped-up! |!ped! D,,3 D,3 | D,3 D,3!ped-up! | %393
!ped! G,, _B,2 B,3 | _E,,3 _B,3!ped-up! |!ped! [F,,A,]3 A,3 | [D,,F,]2 _B,B, A,A,!ped-up! | %397
!ped! _E,,3 [G,_B,]3 | [C,,_E,G,]3 [F,G,]3!ped-up! |!ped! [D,,D,]3 D,3 | D,3 D,3!ped-up! | %401
!ped! G,, _B,2 B,3 | _E,,3 _B,3!ped-up! |!ped! [F,,A,]3 A,3 | [D,,F,]2 _B,B, A,A,!ped-up! | %405
!ped! [_E,,G,]3 _B,3 | [C,,_E,]3 F,3!ped-up! |!ped! D,,3 D,3 | D,3 D,3!ped-up! | %409
!ped! G,, _B,2 B,3 | _E,,3 _B,3!ped-up! |!ped! [F,,A,]3 A,3 | [D,,F,]2 _B,B, [A,,A,]A,!ped-up! | %413
!ped! _E,,3 [G,_B,]3 | [C,,_E,]3 [F,G,]3!ped-up! |!ped! D,,3 D,3 | D,3 D,3!ped-up! | %417
!ped! (7:6:7G,,D,G,D,[G,,_B,]D,_E, | _B,,_E,, B,,_E, B,,F,,!ped-up! |!ped! C,F, [C,A,]F,, C,D, | %420
 A,,D,, [A,,A,]D, A,,_E,,!ped-up! |!ped! _B,,[_E,_B,] [B,,G,][_E,,B,] B,,C, | %422
 G,,[C,,G,] G,,C, G,,D,,!ped-up! |!ped! A,,[D,A,] A,,D,, A,,[D,A,] | %424
 A,,[D,,_B,] A,,D, A,,G,,!ped-up! |!ped! D,G, [D,_B,]G,, D,_E, | _B,,_E,, B,,_E, B,,F,,!ped-up! | %427
!ped! C,F, [C,A,]F,, C,D, | A,,D,, [A,,A,]D, A,,_E,,!ped-up! | %429
!ped! _B,,[_E,_B,] [B,,G,][_E,,B,] B,,C, | G,,[C,,G,] G,,C, G,,D,,!ped-up! | %431
!ped! A,,[D,A,] A,,D,, A,,[D,A,] | A,,[D,,_B,] A,,D, A,,G,,!ped-up! |!ped! D,G, [D,_B,]G,, D,_E, | %434
 _B,,_E,, B,,_E, B,,F,,!ped-up! |!ped! C,F, [C,A,]F,, C,D, | A,,D,, [A,,A,]D, A,,_E,,!ped-up! | %437
!ped! _B,,[_E,_B,] [B,,G,][_E,,B,] B,,C, | G,,[C,,G,] G,,C, G,,D,,!ped-up! | %439
!ped! A,,[D,A,] A,,D,, A,,[D,A,] | A,,[D,,_B,] A,,D, A,,G,,!ped-up! |!ped! D,G, [D,_B,]G,, D,_E, | %442
 _B,,_E,, B,,_E, B,,F,,!ped-up! |!ped! C,F, [C,A,]F,, C,D, | A,,D,, [A,,A,]D, A,,_E,,!ped-up! | %445
!ped! _B,,[_E,_B,] B,,[_E,,B,] B,,C, | G,,[C,,G,] G,,C, G,,D,,!ped-up! | %447
!ped! A,,[D,A,] A,,D,, A,,[D,A,] | A,,[D,,_B,] (3A,,2 D,2 A,,2!ped-up! |!ped! G,, _B,2 B,3 | %450
 _E,, G,2 _B,3 | [F,,A,]3 A,2 z/!ped-up!!ped! F,/ | D,, z/ _B,/ z z/ A,/ [A,B,]A,/G,/ | %453
 [_E,,_E,]3!ped-up!!ped! [G,_B,]3 | [C,,_E,]3 F,3!ped-up! |!ped! D,,3 D,3 | D,3 D,3!ped-up! | %457
!ped! G,, _B,2 B,3 | [_E,,G,_B,]3 B,3 | [F,,A,]3 A,2!ped-up! z/!ped! F,/ | %460
 D,, z/ _B,/ z z/ A,/ [A,B,]A,/G,/ | [_E,,_E,]3!ped-up!!ped! [G,_B,]3 | [C,,_E,]3 F,3!ped-up! | %463
!ped! D,,3 D,3 | D,3 D,3!ped-up! |:!ped! G,, _B,2 B,3 | [_E,,G,_B,]3 B,3!ped-up! | %467
!ped! [F,,A,]3 A,3 | [D,,F,]2 _B,B, A,2!ped-up! |!ped! [_E,,G,]3 [G,_B,]3 | [C,,G,]3 F,3!ped-up! | %471
!ped! D,,3 D,3 | D,3 D,3!ped-up! :|!ped! G,, _B,2 B,3 | [_E,,G,_B,]3!ped-up!!ped! B,3 | %475
 [F,,A,]3 A,2!ped-up! z/!ped! F,/ | D,, z/ _B,/ z z/ A,/ [A,B,]A,/G,/ | %477
 [_E,,_E,]3!ped-up!!ped! [G,_B,]3 | [C,,_E,]3 F,3!ped-up! |!ped! D,,3 D,3 | D,3 D,3- | D,6- | %482
 D,6- | D,6- | D,6!ped-up! |] %485

